Newaita/actions/16/draw-polygon.svg

<svg height="16" viewBox="0 0 16 16" width="16" xmlns="http://www.w3.org/2000/svg"><path d="m7.96875 2.113281c-.152344-.007812-.304688.039063-.425781.132813l-5.292969 3.96875c-.21875.164062-.3125.449218-.234375.714844l1.984375 6.613281c.082031.28125.339844.472656.628906.472656h6.617188c.289062 0 .546875-.191406.628906-.472656l1.984375-6.613281c.082031-.265626-.011719-.550782-.234375-.714844l-5.292969-3.96875c-.105469-.082032-.234375-.128906-.363281-.132813zm-.03125 1.480469 4.53125 3.398438-1.710938 5.703124h-5.636718l-1.710938-5.703124zm0 0" fill="#424242"/></svg>

<svg xmlns="http://www.w3.org/2000/svg" xmlns:xlink="http://www.w3.org/1999/xlink" width="16px" height="16px" viewBox="0 0 16 16" version="1.1">
<g id="surface1">
     <defs>
  <style id="current-color-scheme" type="text/css">
   .ColorScheme-Text { color:#424242; } .ColorScheme-Highlight { color:#eeeeee; }
  </style>
 </defs>
<path style="fill:currentColor" class="ColorScheme-Text" d="M 7.96875 2.113281 C 7.816406 2.105469 7.664062 2.152344 7.542969 2.246094 L 2.25 6.214844 C 2.03125 6.378906 1.9375 6.664062 2.015625 6.929688 L 4 13.542969 C 4.082031 13.824219 4.339844 14.015625 4.628906 14.015625 L 11.246094 14.015625 C 11.535156 14.015625 11.792969 13.824219 11.875 13.542969 L 13.859375 6.929688 C 13.941406 6.664062 13.847656 6.378906 13.625 6.214844 L 8.332031 2.246094 C 8.226562 2.164062 8.097656 2.117188 7.96875 2.113281 Z M 7.9375 3.59375 L 12.46875 6.992188 L 10.757812 12.695312 L 5.121094 12.695312 L 3.410156 6.992188 Z M 7.9375 3.59375 "/>
</g>
</svg>
